X:1
T:Ye saints and servants of the Lord
T:John Broderip (of Wells)
T:Text: Nahum Tate/Nicholas Brady, on Ps. 113
T:This edition by Edmund Gooch released into the public domain, May 2010. As such, it may be freely copied and performed.
T:Ye saints and servants of the Lord
T:Psalm the 113th. New Ver.
C:John Broderip
C:(of Wells)
Z:Text: Nahum Tate/Nicholas Brady,
Z:on Ps. 113
%%score [ 1 2 3 4 ]
L:1/8
M:3/2
K:C
V:1 treble nm="Soprano" snm="S."
V:2 treble nm="Alto" snm="A."
V:3 treble-8 transpose=-12 nm="Tenor" snm="T."
V:4 bass nm="Bass" snm="B."
V:1
 C4 | G8 G4 | c8 c4 | (c6 d2) B4 | c8 G4 | ^G8 A4 | A8 B4 | (c4 B4) A4 | G8 B4 | e8 ^G4 | %10
w: Though|’tis be-|neath his|state _ to|view In|high- est|heav’n what|an- * gels|do, Yet|he to|
w: Ye|saints and|ser- vants|of _ the|Lord, The|tri- umphs|of his|name _ re-|cord; His|sac- red|
w: God|through the|world ex-|tends _ his|sway; The|re- gions|of e-|ter- * nal|day But|sha- dows|
 (A2 B2 c4) B4 | e8 ^d4 | e8 e4 | e8 e4 | d8 c4 | c8 (d2 c2) | B8 e4 | e8 e4 | d8 c4 | c8 d4 | %20
w: earth _ _ vouch-|safes his|care: He|takes the|nee- dy|from his _|cell, Ad-|vanc- ing|him in|courts to|
w: name _ _ for|ev- er|bless: Where-|e’er the|circ- ling|sun dis- *|plays His|ris- ing|beams or|set- ting|
w: of _ _ his|glo- ry|are. With|him, whose|ma- jes-|ty ex- *|cels, Who|made the|heav’n in|which he|
 G8 G4 | C8 B4 | c8 c4 | (c6 d2) B4 | c8 |] %25
w: dwell, Com-|pan- ion|to the|great- * est|there.|
w: rays, Due|praise to|his great|name _ ad-|dress.|
w: dwells, Let|no cre-|a- ted|pow’r _ com-|pare.|
V:2
 G,4 | C8 D4 | F8 E4 | (E4 D4) D4 | C8 E4 | E8 E4 | (E4 ^F4) G4 | G8 ^F4 | G8 G4 | G8 E4 | E8 ^F4 | %11
w: Though|’tis be-|neath his|state _ to|view In|high- est|heav’n _ what|an- gels|do, Yet|he to|earth vouch-|
w: Ye|saints and|ser- vants|of _ the|Lord, The|tri- umphs|of _ his|name re-|cord; His|sac- red|name for|
w: God|through the|world ex-|tends _ his|sway; The|re- gions|of _ e-|ter- nal|day But|sha- dows|of his|
 G4 ^F8 | E8 G4 | G8 G4 | (G6 F2) E4 | (E2 F2 G4) A4 | G8 G4 | G8 G4 | (G4 F4) E4 | G8 (F2 E2) | %20
w: safes his|care: He|takes the|nee- * dy|from _ _ his|cell, Ad-|vanc- ing|him _ in|courts to _|
w: ev- er|bless: Where-|e’er the|circ- * ling|sun _ _ dis-|plays His|ris- ing|beams _ or|set- ting _|
w: glo- ry|are. With|him, whose|ma- * jes-|ty _ _ ex-|cels, Who|made the|heav’n _ in|which he _|
 D8 D4 | C8 G4 | G8 G4 | F8 F4 | E8 |] %25
w: dwell, Com-|pan- ion|to the|great- est|there.|
w: rays, Due|praise to|his great|name ad-|dress.|
w: dwells, Let|no cre-|a- ted|pow’r com-|pare.|
V:3
 E4 | G8 B4 | c8 c4 | (G4 A4) (G2 F2) | E8 c4 | B8 A4 | c8 d4 | (e4 d4) c4 | B8 G4 | c8 B4 | %10
w: Though|’tis be-|neath his|state _ to _|view In|high- est|heav’n what|an- * gels|do, Yet|he to|
w: Ye|saints and|ser- vants|of _ the _|Lord, The|tri- umphs|of his|name _ re-|cord; His|sac- red|
w: God|through the|world ex-|tends _ his _|sway; The|re- gions|of e-|ter- * nal|day But|sha- dows|
 A8 B4 | B8 B4 | B8 c4 | c8 c4 | B8 e4 | c8 (f2 e2) | d8 c4 | c8 c4 | B8 c4 | e8 (d2 c2) | B8 B4 | %21
w: earth vouch-|safes his|care: He|takes the|nee- dy|from his _|cell, Ad-|vanc- ing|him in|courts to _|dwell, Com-|
w: name for|ev- er|bless: Where-|e’er the|circ- ling|sun dis- *|plays His|ris- ing|beams or|set- ting _|rays, Due|
w: of his|glo- ry|are. With|him, whose|ma- jes-|ty ex- *|cels, Who|made the|heav’n in|which he _|dwells, Let|
 (c4 G4) d4 | e8 G4 | A8 d4 | c8 |] %25
w: pan- * ion|to the|great- est|there.|
w: praise _ to|his great|name ad-|dress.|
w: no _ cre-|a- ted|pow’r com-|pare.|
V:4
 C,4 | E,8 G,4 | (A,4 B,4) C4 | (E,4 F,4) G,4 | C,8 C,4 | E,8 A,,4 | A,8 G,4 | C,4 D,8 | G,8 G,4 | %9
w: Though|’tis be-|neath _ his|state _ to|view In|high- est|heav’n what|an- gels|do, Yet|
w: Ye|saints and|ser- * vants|of _ the|Lord, The|tri- umphs|of his|name re-|cord; His|
w: God|through the|world _ ex-|tends _ his|sway; The|re- gions|of e-|ter- nal|day But|
 C,8 E,4 | A,8 A,4 | (G,2 A,2 B,4) B,,4 | E,8 C,4 | (C,6 D,2) (E,2 F,2) | G,8 (A,2 B,2) | %15
w: he to|earth vouch-|safes _ _ his|care: He|takes _ the _|nee- dy _|
w: sac- red|name for|ev- * * er|bless: Where-|e’er _ the _|circ- ling _|
w: sha- dows|of his|glo- * * ry|are. With|him, _ whose _|ma- jes- *|
 (C4 E,4) F,4 | G,8 C,4 | (C,6 D,2) (E,2 F,2) | G,8 (A,2 B,2) | %19
w: from _ his|cell, Ad-|vanc- * ing _|him in _|
w: sun _ dis-|plays His|ris- * ing _|beams or _|
w: ty _ ex-|cels, Who|made _ the _|heav’n in _|
"^Emendations: Original clefs treble, alto, tenor, bass. The first verse only of the text is given in the source." (C4 E,4) F,4 | %20
w: courts _ to|
w: set- * ting|
w: which _ he|
 G,8 G,4 | E,8 G,4 | C8 E,4 | F,8 G,4 | C,8 |] %25
w: dwell, Com-|pan- ion|to the|great- est|there.|
w: rays, Due|praise to|his great|name ad-|dress.|
w: dwells, Let|no cre-|a- ted|pow’r com-|pare.|

